images/socials-icon-1.svg

<svg width="16" height="16" viewBox="0 0 16 16" fill="none" xmlns="http://www.w3.org/2000/svg">
<path fill-rule="evenodd" clip-rule="evenodd" d="M1.98219 11.1178V8.46874C2.74312 8.46874 4.80094 8.3528 5.42156 8.63717C6.31562 9.04655 6.25469 10.5194 5.40125 10.9428C4.79969 11.2356 2.73031 11.1178 1.98219 11.1178ZM14.3866 3.4778H10.0681V4.48061H14.3866V3.4778ZM12.3528 6.88436C13.3231 6.88436 13.9387 7.47655 14.005 8.44124H10.6944C10.8325 7.49436 11.3562 6.88436 12.3528 6.88436ZM12.4219 13.0931C13.8541 13.0928 15.7116 12.2678 15.8991 10.6931H13.9372C13.625 11.284 13.1459 11.5356 12.4747 11.5356C11.3322 11.5356 10.6934 10.85 10.6475 9.70811H15.9987C16.0356 7.26905 15.2166 5.3003 12.3522 5.3003C9.95469 5.29999 8.71281 6.95124 8.71281 9.24686C8.71281 11.5728 10.0466 13.0931 12.4219 13.0931ZM1.98219 4.63249C2.85969 4.63249 4.53156 4.52217 5.31875 4.7878C6.01156 5.07561 6.02969 6.22405 5.44844 6.57749C4.80375 6.97155 2.79469 6.82374 1.98219 6.82374V4.63249ZM5.88219 12.7084C7.25469 12.4253 8.15094 11.2415 8.15094 9.84311C8.15094 8.74811 7.67062 7.89405 6.61594 7.51092C7.47375 7.0728 7.83437 6.46186 7.83437 5.48186C7.83469 3.67342 6.47781 2.93155 4.80281 2.90686H0V12.8437C1.65812 12.8437 4.32469 13.0347 5.88219 12.7084Z" fill="white"/>
</svg>

<svg width="16" height="16" fill="none" xmlns="http://www.w3.org/2000/svg"><path fill-rule="evenodd" clip-rule="evenodd" d="M1.982 11.118v-2.65c.761 0 2.819-.115 3.44.17.894.409.833 1.881-.02 2.305-.602.293-2.672.175-3.42.175zm12.405-7.64h-4.319V4.48h4.319V3.478zm-2.034 3.406c.97 0 1.586.593 1.652 1.557h-3.31c.137-.947.661-1.557 1.658-1.557zm.069 6.21c1.432-.001 3.29-.826 3.477-2.4h-1.962c-.312.59-.791.842-1.462.842-1.143 0-1.782-.686-1.827-1.828h5.35c.038-2.439-.781-4.408-3.646-4.408-2.397 0-3.64 1.651-3.64 3.947 0 2.326 1.335 3.846 3.71 3.846zM1.982 4.631c.878 0 2.55-.11 3.337.156.693.288.71 1.436.13 1.79-.645.394-2.654.246-3.467.246V4.632zm3.9 8.076c1.373-.283 2.269-1.466 2.269-2.865 0-1.095-.48-1.949-1.535-2.332.858-.438 1.218-1.05 1.218-2.03 0-1.808-1.356-2.55-3.031-2.574H0v9.937c1.658 0 4.325.19 5.882-.136z" fill="#fff"/></svg>
